X: 30642
T: MAINE HORNPIPE
C:
%R: hornpipe, reel
B: Elias Howe "The Musician's Companion" Part 3 1844 p.64 #2
S: http://imslp.org/wiki/The_Musician's_Companion_(Howe,_Elias)
S: https://archive.org/stream/firstthirdpartof03howe/#page/66/mode/1up
Z: 2015 John Chambers <jc:trillian.mit.edu>
M: 2/4
L: 1/16
K: F
% - - - - - - - - - - - - - - - - - - - - - - - - -
cB |\
ABf2 f2gf | egb2 b2ag | afba gfef | gec2 c2cB |\
ABf2 f2af | egc2 c2dB | AFBG AEGE | F2F2F2 :|
|: cB |\
Acfc affc | dc FD B,2 dc | Bdfd bcgc | dBGE C2 cB |\
Acf2 f2af | egc2 c2dB | AFBG AFGE | F2F2F2 :|
% - - - - - - - - - - - - - - - - - - - - - - - - -
